X:41
T: Zwei Gespielinnen
N: A0041
O: Europa, Mitteleuropa, Deutschland
N: Melodie (von Boehme zum Text gesetzt): Souterliedekens 1544
N: ad Ps. 8, dem Text angepasst (was immer das heissen mag).
R: Romanze, Ballade, Lied
M: 6/2
L: 1/4
K: D
D2D2D2 | A4A2=c4A2 | =F4z2
A2A2A2 | _B2A2=F4G4 | =F4z2
F2F2A2 | G=FGAG2F2E2D2 | =C4z2
C2D2E2 | =F2D2A3GF2ED | E2D4

@@@ Tune index: 41
